X:1
T:Viva tutte le vezzose
T:Felice Giardini (1716-1796)
T:Chorale Mélisande http://www.chorale-melisande.fr
T:Chorale Mélisande http://www.chorale-melisande.fr
Z:Chorale Mélisande
Z:http://www.chorale-melisande.fr
%%score [ 1 2 3 ]
L:1/8
Q:1/4=110
M:2/4
K:F
V:1 treble nm="S"
V:2 treble nm="A"
V:3 bass nm="B"
V:1
|:"^Allegretto" F G | A F B A | G F A B | c A d c | B A c c | c c d c | c B B B | B c/ d/ c B | %8
w: Vi- va|tut- te le vez-|zo- se, Vi- va|tut- te le vez-|zo- se, Vi- va|tut- te le vez-|zo- se, don- ne~a-|ma- bi- li, gra- zio-|
 B A c c | d d c E | A2 c c | d d c E | A2 :: c c | c4- | c4- | c4- | c4 | c2 d d | c A B G | %20
w: o- se, che non|han- no cru- del-|tà, che non|han- no cru- del-|tà!|Vi- va|sem-||\--||pre, la mag-|gior fe- li- ci-|
 A2 c d | B G z2 | z2 c d | B G z2 | z2 c c | c c d c | c B B B | B c/ d/ c B | B A c c | d d c E | %30
w: ta: le vez-|zo- se,|le vez-|zo- se|Vi- va|tut- te le vez-|zo- se donne a-|ma- bi- li, gra- zi-|o- se, che non|han- no cru- del-|
 A2 c c | d d c E | F2 :| %33
w: tà, che non|han- no cru- del-|tà!|
V:2
|: F G | A F B A | G F F G | A F B A | G F A A | A A B A | A G G G | G A/ B/ A G | G F A A | %9
w: Vi- va|tut- te le vez-|zo- se, Vi- va|tut- te le vez-|zo- se, Vi- va|tut- te le vez-|zo- se, don- ne~a-|ma- bi- li, gra- zi-|o- se, che non|
 B B A G | F2 A A | B B A G | F2 :: z2 | z2 A B | c A B G | A A A B | c A B G | A A B B | A F G E | %20
w: han- no cru- del-|tà, che non|han- no cru- del-|tà!||Vi- va|sem- pre, vi- va,|vi- va, che da|lo- ro sol- de|ri- va, la mag-|gior fe- li- ci-|
 F2 A B | G E z2 | z2 A B | G E z2 | z2 A A | A A B A | A G G G | G A/ B/ A G | G F A A | B B A G | %30
w: ta: le vez-|zo- se,|le vez-|zo- se|Vi- va|tut- te le vez-|zo- se donne a-|ma- bi- li, gra- zi-|o- se, che non|han- no cru- del-|
 F2 A A | B B A G | F2 :| %33
w: tà, che non|han- no cru- del-|tà!|
V:3
|: z2 | z4 | z4 | z4 | z2 F, F, | F, F, F, F, | C C, C, C, | C, C,/ C,/ C, C, | F, F, F, F, | %9
w: ||||Vi- va|tut- te le vez-|zo- se, don- ne~a-|ma- bi- li, gra- zi-|o- se, che non|
 B,, B,, C, C, | F,2 F, F, | B, B, C C, | F,2 :: z2 | z2 F, G, | A, F, G, E, | F, F, F, G, | %17
w: han- no cru- del-|tà, che non|han- no cru- del-|tà!||Vi- va|sem- pre, vi- va,|vi- va, che da|
 A, F, G, E, | F, F, B, B, | C C C, C, | F,2 z2 | z2 (C,/D,/) (E,/C,/) | F, F, z2 | %23
w: lo- ro sol- de|ri- va, la mag-|gior fe- li- ci-|ta|Vi- * va, *|vi- va,|
 z2 (C,/D,/) (E,/C,/) | F, F, F, F, | F, F, F, F, | C C, C, C, | C, C,/ C,/ C, C, | F, F, F, F, | %29
w: Vi- * va, *|vi- va, vi- va|tut- te le vez-|zo- se donne a-|ma- bi- li, gra- zi-|o- se, che non|
 B,, B,, C, C, | F,2 F, F, | B, B, C C, | F,2 :| %33
w: han- no cru- del-|tà, che non|han- no cru- del-|tà!|

